svg/u1f4b5.svg

<svg viewBox="0 0 128 128" xmlns="http://www.w3.org/2000/svg">
  <g id="Layer_1">
    <g>
      <path d="M119.65,102.09H8.35c-2.4,0-4.35-1.95-4.35-4.35V30.28c0-2.41,1.95-4.37,4.37-4.37h111.27 c2.41,0,4.37,1.95,4.37,4.37v67.46C124,100.14,122.05,102.09,119.65,102.09z" fill="#2E7D32"/>
      <path d="M119.78,89.91H8.22C5.89,89.91,4,88.02,4,85.69V30.28c0-2.41,1.95-4.37,4.37-4.37h111.27 c2.41,0,4.37,1.95,4.37,4.37v55.41C124,88.02,122.11,89.91,119.78,89.91z" fill="#66BB6A"/>
      <g>
        <path d="M39.68,65.37c0-1.23-0.43-2.27-1.29-3.11s-2.32-1.61-4.37-2.29c-2.85-0.87-4.93-2-6.23-3.4 c-1.31-1.4-1.96-3.18-1.96-5.33c0-2.2,0.64-4,1.92-5.4c1.28-1.41,3.04-2.24,5.27-2.51v-3.47c0-0.51,0.42-0.93,0.93-0.93h1.13 c0.51,0,0.93,0.42,0.93,0.93v3.49c2.25,0.31,4,1.25,5.25,2.83c1.12,1.42,1.74,3.3,1.86,5.65c0.02,0.46-0.36,0.84-0.82,0.84 h-2.07c-0.44,0-0.78-0.35-0.82-0.79c-0.11-1.53-0.55-2.77-1.32-3.72c-0.9-1.11-2.11-1.67-3.63-1.67c-1.59,0-2.81,0.41-3.65,1.24 c-0.84,0.82-1.27,1.98-1.27,3.45c0,1.37,0.45,2.46,1.34,3.27c0.89,0.81,2.36,1.55,4.4,2.21c2.04,0.66,3.63,1.39,4.78,2.19 c1.14,0.8,1.99,1.72,2.53,2.78c0.54,1.06,0.81,2.3,0.81,3.72c0,2.26-0.68,4.08-2.04,5.46c-1.36,1.38-3.26,2.2-5.71,2.45v2.9 c0,0.51-0.42,0.93-0.93,0.93H33.6c-0.51,0-0.93-0.42-0.93-0.93v-2.9c-2.49-0.23-4.44-1.11-5.85-2.66 c-1.26-1.38-1.96-3.2-2.09-5.45c-0.03-0.46,0.36-0.84,0.82-0.84h2.09c0.42,0,0.78,0.31,0.81,0.73c0.11,1.51,0.59,2.7,1.44,3.57 c0.98,1,2.36,1.51,4.16,1.51c1.75,0,3.13-0.42,4.14-1.27C39.18,67.98,39.68,66.83,39.68,65.37z" fill="#FFFFFF"/>
        <polygon points="35.64,74.09 32.67,73.24 33.01,43.42 33.01,42.41 36,43.34 35.64,73.22 " fill="#FFFFFF"/>
      </g>
      <circle cx="84.78" cy="57.91" r="18.5" opacity="0.5" fill="#2E7D32"/>
      <path d="M106.45,33.1c0.86,5.4,5.14,9.68,10.54,10.54v28.54c-5.4,0.86-9.68,5.14-10.54,10.54H21.42 c-1.1-5.11-5.26-9.05-10.42-9.87V44.31c5.63-0.89,10.03-5.49,10.63-11.21H106.45 M108.29,31.1H19.69 c0.01,0.22,0.02,0.44,0.02,0.67c0,5.91-4.79,10.7-10.7,10.7v32.23c5.68,0,10.33,4.43,10.68,10.03h88.61 c0-5.91,4.79-10.7,10.7-10.7V41.8C113.08,41.8,108.29,37.01,108.29,31.1L108.29,31.1z" fill="#2E7D32"/>
      <rect height="76.18" fill="#FFECB3" width="22.01" x="53" y="25.91"/>
      <rect height="12.18" fill="#FFC06C" width="22.01" x="53" y="89.91"/>
    </g>
  </g>
</svg>

<svg viewBox="0 0 128 128" xmlns="http://www.w3.org/2000/svg">
  <defs/>
  <path d="M119.65,102.09 L8.35,102.09 C5.95,102.09 4,100.14 4,97.74 L4,30.28 C4,27.87 5.95,25.91 8.37,25.91 L119.64,25.91 C122.05,25.91 124.01,27.86 124.01,30.28 L124.01,97.74 C124,100.14 122.05,102.09 119.65,102.09 Z" fill="#2E7D32"/>
  <path d="M119.78,89.91 L8.22,89.91 C5.89,89.91 4,88.02 4,85.69 L4,30.28 C4,27.87 5.95,25.91 8.37,25.91 L119.64,25.91 C122.05,25.91 124.01,27.86 124.01,30.28 L124.01,85.69 C124,88.02 122.11,89.91 119.78,89.91 Z" fill="#66BB6A"/>
  <path d="M39.68,65.37 C39.68,64.14 39.25,63.1 38.39,62.26 C37.53,61.42 36.07,60.65 34.02,59.97 C31.17,59.1 29.09,57.97 27.79,56.57 C26.48,55.17 25.83,53.39 25.83,51.24 C25.83,49.04 26.47,47.24 27.75,45.84 C29.03,44.43 30.79,43.6 33.02,43.33 L33.02,39.86 C33.02,39.35 33.44,38.93 33.95,38.93 L35.08,38.93 C35.59,38.93 36.01,39.35 36.01,39.86 L36.01,43.35 C38.26,43.66 40.01,44.6 41.26,46.18 C42.38,47.6 43,49.48 43.12,51.83 C43.14,52.29 42.76,52.67 42.3,52.67 L40.23,52.67 C39.79,52.67 39.45,52.32 39.41,51.88 C39.3,50.35 38.86,49.11 38.09,48.16 C37.19,47.05 35.98,46.49 34.46,46.49 C32.87,46.49 31.65,46.9 30.81,47.73 C29.97,48.55 29.54,49.71 29.54,51.18 C29.54,52.55 29.99,53.64 30.88,54.45 C31.77,55.26 33.24,56 35.28,56.66 C37.32,57.32 38.91,58.05 40.06,58.85 C41.2,59.65 42.05,60.57 42.59,61.63 C43.13,62.69 43.4,63.93 43.4,65.35 C43.4,67.61 42.72,69.43 41.36,70.81 C40,72.19 38.1,73.01 35.65,73.26 L35.65,76.16 C35.65,76.67 35.23,77.09 34.72,77.09 L33.6,77.09 C33.09,77.09 32.67,76.67 32.67,76.16 L32.67,73.26 C30.18,73.03 28.23,72.15 26.82,70.6 C25.56,69.22 24.86,67.4 24.73,65.15 C24.7,64.69 25.09,64.31 25.55,64.31 L27.64,64.31 C28.06,64.31 28.42,64.62 28.45,65.04 C28.56,66.55 29.04,67.74 29.89,68.61 C30.87,69.61 32.25,70.12 34.05,70.12 C35.8,70.12 37.18,69.7 38.19,68.85 C39.18,67.98 39.68,66.83 39.68,65.37 Z" fill="#FFFFFF"/>
  <path d="M35.64,74.09 L32.67,73.24 L33.01,43.42 L33.01,42.41 L36,43.34 L35.64,73.22 Z" fill="#FFFFFF"/>
  <path d="M103.28,57.91 A18.5 18.5 0 1 1 66.28,57.91 A18.5 18.5 0 1 1 103.28,57.91 Z" fill="#2E7D32" opacity="0.5"/>
  <path d="M106.45,33.1 C107.31,38.5 111.59,42.78 116.99,43.64 L116.99,72.18 C111.59,73.04 107.31,77.32 106.45,82.72 L21.42,82.72 C20.32,77.61 16.16,73.67 11,72.85 L11,44.31 C16.63,43.42 21.03,38.82 21.63,33.1 L106.45,33.1 M108.29,31.1 L19.69,31.1 C19.7,31.32 19.71,31.54 19.71,31.77 C19.71,37.68 14.92,42.47 9.01,42.47 L9.01,74.7 C14.69,74.7 19.34,79.13 19.69,84.73 L108.3,84.73 C108.3,78.82 113.09,74.03 119,74.03 L119,41.8 C113.08,41.8 108.29,37.01 108.29,31.1 L108.29,31.1 Z" fill="#2E7D32"/>
  <path d="M53,25.91 L75.01,25.91 L75.01,102.09 L53,102.09 L53,25.91 Z" fill="#FFECB3"/>
  <path d="M53,89.91 L75.01,89.91 L75.01,102.09 L53,102.09 L53,89.91 Z" fill="#FFC06C"/>
</svg>
